src/static/logos/brandfolder-icon.svg

<?xml version="1.0" encoding="UTF-8"?>
<svg width="256px" height="241px" viewBox="0 0 256 241" version="1.1" xmlns="http://www.w3.org/2000/svg" xmlns:xlink="http://www.w3.org/1999/xlink" preserveAspectRatio="xMidYMid">
    <g fill-rule="evenodd">
        <path d="M0,240.878331 L209.073515,240.878331 L209.073515,209.073515 L31.8048154,209.073515 L31.8048154,31.8048154 L209.155698,31.8048154 L209.155698,148.175923 L193.951846,148.175923 L224.934831,179.241091 L256,148.175923 L240.878331,148.175923 L240.878331,0 L0,0 L0,240.878331 Z M80.6215088,51.364366 C84.7306581,50.7069021 89.4150883,50.2138042 94.8391653,49.8028892 C100.263242,49.3919743 106.920064,49.2276083 114.973997,49.2276083 C121.959551,49.2276083 128.616372,49.8028892 134.862279,50.953451 C141.108186,52.1040128 146.614446,54.0764045 151.216693,56.788443 C155.901124,59.5826645 159.517175,63.1987159 162.229213,67.8009631 C164.941252,72.4032103 166.25618,78.1560193 166.25618,85.05939 C166.25618,89.1685393 165.680899,92.9489567 164.448154,96.482825 C163.215409,100.016693 161.57175,103.057464 159.599358,105.687319 C157.544783,108.317175 155.24366,110.453933 152.695987,112.179775 C150.148315,113.905618 147.518459,114.973997 144.888604,115.302729 C147.847191,115.713644 151.052327,116.617657 154.668379,118.014767 C158.202247,119.411878 161.57175,121.466453 164.61252,124.260674 C167.653291,126.972713 170.283146,130.588764 172.255538,134.862279 C174.310112,139.217978 175.296308,144.395506 175.296308,150.55923 C175.296308,158.859711 173.734831,165.680899 170.611878,170.94061 C167.488925,176.282504 163.297592,180.391653 157.955698,183.514607 C152.695987,186.555377 146.532263,188.692135 139.546709,189.842697 C132.561156,190.993258 125.24687,191.568539 117.603852,191.568539 C111.686677,191.568539 105.933868,191.404173 100.181059,191.075441 C94.4282504,190.746709 87.9357945,190.171429 80.6215088,189.267416 L80.6215088,51.364366 Z M108.399358,168.228571 L108.399358,128.369823 L119.904976,128.369823 C123.849759,128.369823 127.465811,128.698555 130.75313,129.356019 C134.040449,130.013483 136.834671,131.081862 139.217978,132.725522 C141.601284,134.286998 143.40931,136.423756 144.642055,139.053612 C145.874799,141.683467 146.532263,144.970787 146.532263,148.91557 C146.532263,153.106902 145.710433,156.558587 144.066774,159.188443 C142.423114,161.818299 140.286356,163.872873 137.738684,165.352167 C135.191011,166.831461 132.39679,167.817657 129.520385,168.310754 C126.561798,168.803852 123.767576,169.050401 121.055538,169.050401 C119.165329,169.050401 117.028571,168.968218 114.645265,168.886035 C112.261958,168.721669 110.207384,168.47512 108.399358,168.228571 M116.864205,107.330979 L108.399358,107.330979 L108.399358,70.5130016 C110.864848,70.1020867 113.823435,69.9377207 117.439486,69.9377207 C119.987159,69.9377207 122.617014,70.1842697 125.164687,70.5951846 C127.794543,71.0882825 130.177849,71.9101124 132.232424,73.3072231 C134.369181,74.6221509 136.095024,76.5123596 137.409952,78.8956661 C138.72488,81.2789727 139.382343,84.3197432 139.382343,88.0179775 C139.382343,91.8805778 138.807063,95.0035313 137.656501,97.5512039 C136.505939,100.016693 134.944462,101.989085 132.889888,103.468379 C130.835313,104.947673 128.452006,105.933868 125.657785,106.509149 C123.027929,107.002247 120.069342,107.330979 116.864205,107.330979" fill="#40D1F5"></path>
    </g>
</svg>

<svg width="256" height="241" xmlns="http://www.w3.org/2000/svg" preserveAspectRatio="xMidYMid"><path d="M0 240.878h209.074v-31.804H31.804V31.804h177.352v116.372h-15.204l30.983 31.065L256 148.176h-15.122V0H0v240.878zM80.622 51.364c4.109-.657 8.793-1.15 14.217-1.561 5.424-.411 12.081-.575 20.135-.575 6.986 0 13.642.575 19.888 1.725 6.246 1.151 11.752 3.123 16.355 5.835 4.684 2.795 8.3 6.41 11.012 11.013 2.712 4.602 4.027 10.355 4.027 17.258 0 4.11-.575 7.89-1.808 11.424s-2.876 6.574-4.849 9.204c-2.054 2.63-4.355 4.767-6.903 6.493-2.548 1.726-5.178 2.794-7.807 3.123 2.958.41 6.163 1.315 9.78 2.712a32.06 32.06 0 019.944 6.246c3.04 2.712 5.67 6.328 7.643 10.601 2.054 4.356 3.04 9.534 3.04 15.697 0 8.3-1.561 15.122-4.684 20.382-3.123 5.342-7.314 9.45-12.656 12.574-5.26 3.04-11.424 5.177-18.41 6.328-6.985 1.15-14.3 1.726-21.942 1.726-5.917 0-11.67-.165-17.423-.494-5.753-.328-12.245-.904-19.56-1.808V51.364zm27.777 116.865v-39.86h11.506c3.945 0 7.56.33 10.848.987 3.287.657 6.082 1.726 8.465 3.37 2.383 1.561 4.191 3.698 5.424 6.328 1.233 2.63 1.89 5.917 1.89 9.862 0 4.19-.822 7.643-2.465 10.272-1.644 2.63-3.78 4.685-6.328 6.164a24.666 24.666 0 01-8.219 2.959c-2.958.493-5.752.74-8.464.74-1.89 0-4.027-.083-6.41-.165a92.228 92.228 0 01-6.247-.657m8.465-60.898H108.4V70.513c2.466-.41 5.424-.575 9.04-.575 2.548 0 5.178.246 7.726.657 2.63.493 5.013 1.315 7.067 2.712 2.137 1.315 3.863 3.205 5.178 5.589 1.315 2.383 1.972 5.424 1.972 9.122 0 3.863-.575 6.986-1.725 9.533-1.151 2.466-2.713 4.438-4.767 5.917-2.055 1.48-4.438 2.466-7.232 3.041a47.76 47.76 0 01-8.794.822" fill="#40D1F5" fill-rule="evenodd"/></svg>
